packages/core/src/svgs/muse.svg

<svg width="24" height="24" viewBox="0 0 24 24" fill="none" xmlns="http://www.w3.org/2000/svg">
<g clip-path="url(#clip0_31_14460)">
<path d="M0 0H24V24H0V0Z" fill="#3D3D3D"/>
<path d="M7.60711 5.78557L12.2143 10.3113C13.7614 8.75986 15.3214 7.397 16.8128 5.79415C16.9062 5.69218 17.0286 5.62143 17.1636 5.59153C17.2985 5.56162 17.4394 5.57401 17.5671 5.627C17.8285 5.73843 18 5.98272 18 6.27415V8.82843C16.1743 10.727 14.43 12.497 12.6343 14.3956C12.5805 14.4532 12.5155 14.4991 12.4432 14.5306C12.371 14.562 12.293 14.5782 12.2143 14.5782C12.1355 14.5782 12.0575 14.562 11.9853 14.5306C11.913 14.4991 11.848 14.4532 11.7943 14.3956L9.42854 11.8113V17.4127C9.42854 17.7384 9.10711 17.9999 8.78568 17.9999H7.07139C6.74997 17.9999 6.42854 17.7299 6.42854 17.3999V16.7141H5.72568C5.40425 16.7141 5.14282 16.4441 5.14282 16.1141V14.3141C5.14282 13.9841 5.40425 13.7141 5.72568 13.7141H6.42854V11.9999H5.72568C5.40425 11.9999 5.14282 11.7299 5.14282 11.3999V9.59986C5.14282 9.26986 5.40425 8.99986 5.72568 8.99986H6.42854V6.27415C6.42854 5.98272 6.59139 5.72986 6.86139 5.63129C6.94711 5.58843 7.03711 5.57129 7.12711 5.57129C7.30711 5.57129 7.47854 5.64843 7.60711 5.78557ZM15.2057 13.3584L16.9114 11.747C17.0027 11.6597 17.1179 11.6017 17.2424 11.5803C17.3668 11.5589 17.4948 11.5752 17.61 11.627C17.8543 11.7256 18 11.9527 18 12.2141V17.357C18 17.7084 17.7128 17.9999 17.3528 17.9999H15.6471C15.5623 18.0004 15.4783 17.9842 15.3998 17.9522C15.3213 17.9201 15.2499 17.8728 15.1898 17.8131C15.1296 17.7533 15.0819 17.6823 15.0493 17.604C15.0167 17.5257 15 17.4418 15 17.357V13.8256C15.0085 13.6413 15.0728 13.4827 15.2057 13.3584Z" fill="#24DDD8"/>
</g>
<defs>
<clipPath id="clip0_31_14460">
<rect width="24" height="24" fill="white"/>
</clipPath>
</defs>
</svg>

<svg xmlns="http://www.w3.org/2000/svg" width="24" height="24" fill="none" viewBox="0 0 24 24"><g clip-path="url(#a)"><path fill="#3D3D3D" d="M0 0h24v24H0z"/><path fill="#24DDD8" d="m7.607 5.786 4.607 4.525c1.547-1.551 3.107-2.914 4.599-4.517a.67.67 0 0 1 .754-.167.7.7 0 0 1 .433.647v2.554c-1.826 1.899-3.57 3.669-5.366 5.568a.576.576 0 0 1-.84 0L9.43 11.81v5.602c0 .325-.322.587-.643.587H7.07c-.321 0-.642-.27-.642-.6v-.686h-.703a.593.593 0 0 1-.583-.6v-1.8c0-.33.261-.6.583-.6h.703V12h-.703a.593.593 0 0 1-.583-.6V9.6c0-.33.261-.6.583-.6h.703V6.274c0-.291.162-.544.432-.643a.6.6 0 0 1 .266-.06c.18 0 .352.077.48.215m7.599 7.572 1.705-1.611a.63.63 0 0 1 .699-.12.62.62 0 0 1 .39.587v5.143a.646.646 0 0 1-.647.643h-1.706a.645.645 0 0 1-.647-.643v-3.531a.66.66 0 0 1 .206-.468"/></g><defs><clipPath id="a"><path fill="#fff" d="M0 0h24v24H0z"/></clipPath></defs></svg>
